X: 14
T: No_11_Bear_Dance_Song_(g).krn
N: Derived from No_11_Bear_Dance_Song_(g).krn
%%abc-version 2.0
%%abcx-abcm2ps-target-version 5.9.1 (29 Sep 2008)
%%abc-creator hum2abc beta
%%abcx-conversion-date 2019/03/15 08:36:49
%%humdrum-veritas 1509719430
%%humdrum-veritas-data 1217375015
%%linebreak <none>
%%barnumbers 0
L: 1/8
M: 3/4
K: B clef=bass
[K:clef=bass][M:3/4]DC CB, B,3/B,/ ||  
[M:2/4]D4- | 
D4 | 
C4 | 
C3G, | 
D4 | 
DB,B,2 | 
G,G,F,2 | 
G,F, F,D, | 
D,4- | 
D,4 | 
(3C,C,C,C,2 | 
(3C,C,C,C,2 | 
(3C,C,C,C,2 | 
(3C,C,C,C,2 ||  
D2D2 | 
DB,B,2 | 
G,F,F,2 ||  
[M:3/4]G,F, F,D, !fermata!D,3/G,/ | 
G,2D, z/ G,/ G,3/G,/ | 
G,6 ||  
[M:2/4]G,F, F,D, ||  
[M:3/4]D,2D, z D,3/G,/ | 
G,2D, z/ G,/ G,3/G,/ ||  
[M:2/4]G,4 | 
G,3G, | 
G,3G, ||  
[M:3/4]G,3/G,/G,3G, ||  
[M:2/4]G,3G, | 
G,4- | 
G,4 |]  



